X:151
T:B151-  The friar in the well
S:(2nd/2)
Q:1/4=120
L:1/4
M:6/4
K:G
D|G2GG3/2A/2B|A2GE3|B2Bc3/2d/2e|d2BG2:|G|\
B2cd3/2e/2d|c2BA2G|F2EF2G|A3/2G/2FE3|\
D2DG2G|F3/2E/2FE2E|D2GF3/2G/2A|(G3G2)||G|\
B2cd2B|e2dc2B|A2GE3/2F/2G|AG2E3|\
D3G3|F3/2E/2FE2D|D2GGAF|(G3G2)|]
